Numix-Circle/48x48/apps/mediainfo.svg

<?xml version="1.0" encoding="UTF-8" standalone="no"?>
<svg
   xmlns:dc="http://purl.org/dc/elements/1.1/"
   xmlns:cc="http://creativecommons.org/ns#"
   xmlns:rdf="http://www.w3.org/1999/02/22-rdf-syntax-ns#"
   xmlns:svg="http://www.w3.org/2000/svg"
   xmlns="http://www.w3.org/2000/svg"
   xmlns:sodipodi="http://sodipodi.sourceforge.net/DTD/sodipodi-0.dtd"
   xmlns:inkscape="http://www.inkscape.org/namespaces/inkscape"
   viewBox="0 0 48 48"
   id="svg2"
   version="1.1"
   inkscape:version="0.91 r13725"
   sodipodi:docname="mediainfo.svg">
  <metadata
     id="metadata42">
    <rdf:RDF>
      <cc:Work
         rdf:about="">
        <dc:format>image/svg+xml</dc:format>
        <dc:type
           rdf:resource="http://purl.org/dc/dcmitype/StillImage" />
        <dc:title />
      </cc:Work>
    </rdf:RDF>
  </metadata>
  <sodipodi:namedview
     pagecolor="#ffffff"
     bordercolor="#666666"
     borderopacity="1"
     objecttolerance="10"
     gridtolerance="10"
     guidetolerance="10"
     inkscape:pageopacity="0"
     inkscape:pageshadow="2"
     inkscape:window-width="1280"
     inkscape:window-height="998"
     id="namedview40"
     showgrid="true"
     inkscape:zoom="13.906433"
     inkscape:cx="25.119855"
     inkscape:cy="20.959212"
     inkscape:window-x="0"
     inkscape:window-y="0"
     inkscape:window-maximized="1"
     inkscape:current-layer="svg2">
    <inkscape:grid
       type="xygrid"
       id="grid3389" />
  </sodipodi:namedview>
  <defs
     id="defs4">
    <clipPath
       id="clipPath6">
      <g
         transform="translate(0,-1004.3622)"
         id="g8">
        <path
           d="m -24 13 c 0 1.105 -0.672 2 -1.5 2 -0.828 0 -1.5 -0.895 -1.5 -2 0 -1.105 0.672 -2 1.5 -2 0.828 0 1.5 0.895 1.5 2 z"
           transform="matrix(15.333333,0,0,11.5,414.99999,878.8622)"
           fill="#1890d0"
           id="path10" />
      </g>
    </clipPath>
    <clipPath
       id="clipPath12">
      <g
         transform="translate(0,-1004.3622)"
         id="g14">
        <path
           d="m -24 13 c 0 1.105 -0.672 2 -1.5 2 -0.828 0 -1.5 -0.895 -1.5 -2 0 -1.105 0.672 -2 1.5 -2 0.828 0 1.5 0.895 1.5 2 z"
           transform="matrix(15.333333,0,0,11.5,414.99999,878.8622)"
           fill="#1890d0"
           id="path16" />
      </g>
    </clipPath>
    <clipPath
       clipPathUnits="userSpaceOnUse"
       id="clipPath3375">
      <rect
         style="opacity:1;fill:#9ab9dd;fill-opacity:1;fill-rule:nonzero;stroke:none;stroke-width:30.89999962;stroke-linejoin:round;stroke-miterlimit:4;stroke-dasharray:none;stroke-opacity:1"
         id="rect3377"
         width="189.55933"
         height="257.08475"
         x="-98.847466"
         y="-134.64407" />
    </clipPath>
  </defs>
  <g
     id="g18">
    <path
       d="m 36.31 5 c 5.859 4.062 9.688 10.831 9.688 18.5 c 0 12.426 -10.07 22.5 -22.5 22.5 c -7.669 0 -14.438 -3.828 -18.5 -9.688 c 1.037 1.822 2.306 3.499 3.781 4.969 c 4.085 3.712 9.514 5.969 15.469 5.969 c 12.703 0 23 -10.298 23 -23 c 0 -5.954 -2.256 -11.384 -5.969 -15.469 c -1.469 -1.475 -3.147 -2.744 -4.969 -3.781 z m 4.969 3.781 c 3.854 4.113 6.219 9.637 6.219 15.719 c 0 12.703 -10.297 23 -23 23 c -6.081 0 -11.606 -2.364 -15.719 -6.219 c 4.16 4.144 9.883 6.719 16.219 6.719 c 12.703 0 23 -10.298 23 -23 c 0 -6.335 -2.575 -12.06 -6.719 -16.219 z"
       opacity="0.05"
       id="path20" />
    <path
       d="m 41.28 8.781 c 3.712 4.085 5.969 9.514 5.969 15.469 c 0 12.703 -10.297 23 -23 23 c -5.954 0 -11.384 -2.256 -15.469 -5.969 c 4.113 3.854 9.637 6.219 15.719 6.219 c 12.703 0 23 -10.298 23 -23 c 0 -6.081 -2.364 -11.606 -6.219 -15.719 z"
       opacity="0.1"
       id="path22" />
    <path
       d="m 31.25 2.375 c 8.615 3.154 14.75 11.417 14.75 21.13 c 0 12.426 -10.07 22.5 -22.5 22.5 c -9.708 0 -17.971 -6.135 -21.12 -14.75 a 23 23 0 0 0 44.875 -7 a 23 23 0 0 0 -16 -21.875 z"
       opacity="0.2"
       id="path24" />
  </g>
  <path
     style="fill:#9add9c;fill-opacity:1;fill-rule:nonzero;stroke:none"
     d="M 24 1 C 22.279 1 20.613 1.2035 19 1.5625 C 17.616424 1.869757 16.27879 2.3006634 15 2.8417969 L 15 45.158203 C 16.27879 45.699337 17.616424 46.130243 19 46.4375 C 20.613 46.7955 22.279 47.001953 24 47.001953 C 25.721 47.001953 27.387 46.7965 29 46.4375 C 30.383576 46.130243 31.72121 45.699337 33 45.158203 L 33 2.8417969 C 31.72121 2.3006634 30.383576 1.869757 29 1.5625 C 27.387 1.2045 25.721 1 24 1 z "
     id="path26" />
  <path
     style="fill:#ed8e68;fill-opacity:1;fill-rule:nonzero;stroke:none"
     d="M 15 2.8417969 C 12.803557 3.7712451 10.781054 5.028569 9 6.5625 C 4.103 10.7805 1 17.030953 1 24.001953 C 1 30.972953 4.103 37.221453 9 41.439453 L 9 41.4375 C 10.781054 42.971431 12.803557 44.228755 15 45.158203 L 15 2.8417969 z "
     id="path28" />
  <path
     style="fill:#9ab9dd;fill-opacity:1;fill-rule:nonzero;stroke:none"
     d="M 33 2.8417969 L 33 45.158203 C 35.196443 44.228755 37.218946 42.971431 39 41.4375 C 43.897 37.2195 47 30.971 47 24 C 47 17.029 43.897 10.7805 39 6.5625 C 37.218946 5.028569 35.196443 3.7712451 33 2.8417969 z "
     id="path34" />
  <g
     id="g36">
    <path
       d="m 40.03 7.531 c 3.712 4.084 5.969 9.514 5.969 15.469 0 12.703 -10.297 23 -23 23 c -5.954 0 -11.384 -2.256 -15.469 -5.969 4.178 4.291 10.01 6.969 16.469 6.969 c 12.703 0 23 -10.298 23 -23 0 -6.462 -2.677 -12.291 -6.969 -16.469 z"
       opacity="0.1"
       id="path38" />
  </g>
  <path
     style="opacity:0.1;fill:#000000;fill-opacity:1;fill-rule:evenodd;stroke:none;stroke-width:1px;stroke-linecap:butt;stroke-linejoin:miter;stroke-opacity:1"
     d="m 21,10 c 17,4 17,26 0,30 21,-3 21,-27 0,-30 z m 0,6 c 9,2 9,16 0,18 13,-1 13,-17 0,-18 z m -1,4 a 5,5 0 0 0 -5,5 5,5 0 0 0 5,5 5,5 0 0 0 5,-5 5,5 0 0 0 -5,-5 z"
     id="path3355"
     inkscape:connector-curvature="0" />
  <path
     style="opacity:1;fill:#2d2d2d;fill-opacity:1;fill-rule:evenodd;stroke:none;stroke-width:1px;stroke-linecap:butt;stroke-linejoin:miter;stroke-opacity:1"
     d="m 20,33 c 13,-1 13,-17 0,-18 9,2 9,16 0,18 z"
     id="path4151"
     inkscape:connector-curvature="0"
     sodipodi:nodetypes="ccc" />
  <circle
     style="opacity:1;fill:#2d2d2d;fill-opacity:1;fill-rule:nonzero;stroke:none;stroke-width:30.89999962;stroke-linejoin:round;stroke-miterlimit:4;stroke-dasharray:none;stroke-opacity:1"
     id="path4153"
     cx="19"
     cy="24"
     r="5" />
  <path
     style="opacity:1;fill:#2d2d2d;fill-opacity:1;fill-rule:evenodd;stroke:none;stroke-width:1px;stroke-linecap:butt;stroke-linejoin:miter;stroke-opacity:1"
     d="M 20,39 C 41,36 41,12 20,9 37,13 37,35 20,39 Z"
     id="path4161"
     inkscape:connector-curvature="0"
     sodipodi:nodetypes="ccc" />
  <rect
     style="opacity:1;fill:#f9f9f9;fill-opacity:1;fill-rule:nonzero;stroke:none;stroke-width:30.89999962;stroke-linejoin:round;stroke-miterlimit:4;stroke-dasharray:none;stroke-opacity:1"
     id="rect4163"
     width="2"
     height="2"
     x="18"
     y="26" />
  <path
     style="opacity:1;fill:#f9f9f9;fill-opacity:1;fill-rule:evenodd;stroke:none;stroke-width:1px;stroke-linecap:butt;stroke-linejoin:miter;stroke-opacity:1"
     d="m 18,25 2,0 c 0,-0.555085 1.502288,-1.131281 1.467389,-2.626769 C 21.422162,20.435147 18.848931,19.808585 17,21 l 0,2 c 1.509745,-1.190938 2.165019,-1 2.534746,-0.46017 C 20.040033,23.27759 18,23 18,25 Z"
     id="path4165"
     inkscape:connector-curvature="0"
     sodipodi:nodetypes="ccsccsc" />
</svg>

<svg xmlns="http://www.w3.org/2000/svg" viewBox="0 0 48 48"><defs><clipPath><g transform="translate(0,-1004.3622)"><path d="m -24 13 c 0 1.105 -0.672 2 -1.5 2 -0.828 0 -1.5 -0.895 -1.5 -2 0 -1.105 0.672 -2 1.5 -2 0.828 0 1.5 0.895 1.5 2 z" transform="matrix(15.333333,0,0,11.5,414.99999,878.8622)" fill="#1890d0"/></g></clipPath><clipPath><g transform="translate(0,-1004.3622)"><path d="m -24 13 c 0 1.105 -0.672 2 -1.5 2 -0.828 0 -1.5 -0.895 -1.5 -2 0 -1.105 0.672 -2 1.5 -2 0.828 0 1.5 0.895 1.5 2 z" transform="matrix(15.333333,0,0,11.5,414.99999,878.8622)" fill="#1890d0"/></g></clipPath><clipPath clipPathUnits="userSpaceOnUse"><rect width="189.56" height="257.08" x="-98.85" y="-134.64" opacity="1" fill="#9ab9dd" fill-rule="nonzero" stroke="none" fill-opacity="1"/></clipPath></defs><g><path d="m 36.31 5 c 5.859 4.062 9.688 10.831 9.688 18.5 c 0 12.426 -10.07 22.5 -22.5 22.5 c -7.669 0 -14.438 -3.828 -18.5 -9.688 c 1.037 1.822 2.306 3.499 3.781 4.969 c 4.085 3.712 9.514 5.969 15.469 5.969 c 12.703 0 23 -10.298 23 -23 c 0 -5.954 -2.256 -11.384 -5.969 -15.469 c -1.469 -1.475 -3.147 -2.744 -4.969 -3.781 z m 4.969 3.781 c 3.854 4.113 6.219 9.637 6.219 15.719 c 0 12.703 -10.297 23 -23 23 c -6.081 0 -11.606 -2.364 -15.719 -6.219 c 4.16 4.144 9.883 6.719 16.219 6.719 c 12.703 0 23 -10.298 23 -23 c 0 -6.335 -2.575 -12.06 -6.719 -16.219 z" opacity="0.05"/><path d="m 41.28 8.781 c 3.712 4.085 5.969 9.514 5.969 15.469 c 0 12.703 -10.297 23 -23 23 c -5.954 0 -11.384 -2.256 -15.469 -5.969 c 4.113 3.854 9.637 6.219 15.719 6.219 c 12.703 0 23 -10.298 23 -23 c 0 -6.081 -2.364 -11.606 -6.219 -15.719 z" opacity="0.1"/><path d="m 31.25 2.375 c 8.615 3.154 14.75 11.417 14.75 21.13 c 0 12.426 -10.07 22.5 -22.5 22.5 c -9.708 0 -17.971 -6.135 -21.12 -14.75 a 23 23 0 0 0 44.875 -7 a 23 23 0 0 0 -16 -21.875 z" opacity="0.2"/></g><path d="m 24 1 c -1.721 0 -3.387 0.204 -5 0.563 c -1.384 0.307 -2.721 0.738 -4 1.279 l 0 42.32 c 1.279 0.541 2.616 0.972 4 1.279 c 1.613 0.358 3.279 0.564 5 0.564 c 1.721 0 3.387 -0.205 5 -0.564 c 1.384 -0.307 2.721 -0.738 4 -1.279 l 0 -42.32 c -1.279 -0.541 -2.616 -0.972 -4 -1.279 c -1.613 -0.358 -3.279 -0.563 -5 -0.563 z" fill="#9add9c" fill-rule="nonzero" stroke="none" fill-opacity="1"/><path d="m 15 2.842 c -2.196 0.929 -4.219 2.187 -6 3.721 c -4.897 4.218 -8 10.468 -8 17.439 c 0 6.971 3.103 13.219 8 17.438 l 0 -0.002 c 1.781 1.534 3.804 2.791 6 3.721 l 0 -42.32 z" fill="#ed8e68" fill-rule="nonzero" stroke="none" fill-opacity="1"/><path d="m 33 2.842 l 0 42.32 c 2.196 -0.929 4.219 -2.187 6 -3.721 c 4.897 -4.218 8 -10.466 8 -17.438 c 0 -6.971 -3.103 -13.22 -8 -17.438 c -1.781 -1.534 -3.804 -2.791 -6 -3.721 z" fill="#9ab9dd" fill-rule="nonzero" stroke="none" fill-opacity="1"/><g><path d="m 40.03 7.531 c 3.712 4.084 5.969 9.514 5.969 15.469 0 12.703 -10.297 23 -23 23 c -5.954 0 -11.384 -2.256 -15.469 -5.969 4.178 4.291 10.01 6.969 16.469 6.969 c 12.703 0 23 -10.298 23 -23 0 -6.462 -2.677 -12.291 -6.969 -16.469 z" opacity="0.1"/></g><path d="m 21 10 c 17 4 17 26 0 30 21 -3 21 -27 0 -30 z m 0 6 c 9 2 9 16 0 18 13 -1 13 -17 0 -18 z m -1 4 a 5 5 0 0 0 -5 5 5 5 0 0 0 5 5 5 5 0 0 0 5 -5 5 5 0 0 0 -5 -5 z" opacity="0.1" fill="#000" fill-rule="evenodd" stroke="none" fill-opacity="1"/><path d="m 20 33 c 13 -1 13 -17 0 -18 9 2 9 16 0 18 z" opacity="1" fill="#2d2d2d" fill-rule="evenodd" stroke="none" fill-opacity="1"/><circle cx="19" cy="24" r="5" opacity="1" fill="#2d2d2d" fill-rule="nonzero" stroke="none" fill-opacity="1"/><path d="m 20 39 c 21 -3 21 -27 0 -30 17 4 17 26 0 30" opacity="1" fill="#2d2d2d" fill-rule="evenodd" stroke="none" fill-opacity="1"/><rect width="2" height="2" x="18" y="26" opacity="1" fill="#f9f9f9" fill-rule="nonzero" stroke="none" fill-opacity="1"/><path d="m 18 25 2 0 c 0 -0.555 1.502 -1.131 1.467 -2.627 c -0.045 -1.938 -2.618 -2.565 -4.467 -1.373 l 0 2 c 1.51 -1.191 2.165 -1 2.535 -0.46 c 0.505 0.738 -1.535 0.46 -1.535 2.46" opacity="1" fill="#f9f9f9" fill-rule="evenodd" stroke="none" fill-opacity="1"/></svg>
